svgs/sharp-regular/h.svg

<svg xmlns="http://www.w3.org/2000/svg" viewBox="0 0 384 512"><!--! Font Awesome Pro 6.6.0 by @fontawesome - https://fontawesome.com License - https://fontawesome.com/license (Commercial License) Copyright 2024 Fonticons, Inc. --><path d="M336 256l0 200 0 24 48 0 0-24 0-232 0-168 0-24-48 0 0 24 0 152L48 208 48 56l0-24L0 32 0 56 0 456l0 24 48 0 0-24 0-200 288 0z"/></svg>

<svg xmlns="http://www.w3.org/2000/svg" viewBox="0 0 384 512"><!--! Font Awesome Pro 6.4.2 by @fontawesome - https://fontawesome.com License - https://fontawesome.com/license (Commercial License) Copyright 2023 Fonticons, Inc. --><path d="M336 256l0 200v24h48V456l0-232V56 32H336V56 208L48 208 48 56V32H0V56 456v24H48V456l0-200 288 0z"/></svg>
